X:220
T:
R:polska
S:Efter klockaren Veström i Vallstena.
O:Gotland, Vallstena
M:3/4
L:1/16
K:D
Ld4 Ld4 Lc4|d2df e2d2 c2B2|A2A^G A2B2 c2A2|d2de d4 c2e2|
dcdf e2c2 d2B2|cBAB A4 A4::f2fg f4 d4|g2ga g2f2 e2d2|
cdef e2d2 c2B2|LA4 LB4 Lc4|d2d2 fdfd ecec|A4 B4 c4|
d2d2 fdfd g2e2|A2A2 B2B2 c2c2|d2df eceg fdfd|ecec d4 D4:|

